X:66
T:Lads Of Wick. WCD3/6.066
A: England; London
O:
M:C|
L:1/8
Z:vmp.Peter Dunk.2011.from a transcription by Paul Dennant
B:John Walsh Jr. The Compleat Country Dancing Master.Vol 6 1756
Q:1/2=100
K:G
G2 B2 BcdB|G2 e2 efge|G2 B2 BcdB|c2 A2 A2 BA|G2 B2 BcdB|G2 e2 efge|
a2 c2 ABcA|B2 G2 G4::d2 g2 gabg|d2 g2 g2 b2|
d2 g2 gabg|d2 B2 B2 A2|g2 d2 BcdB|G2 e2 efge|a2 c2 ABcA|B2 G2 G4:|

